src/resources/svg/notional.svg

<svg fill="none" height="20" viewBox="0 0 20 20" width="20" xmlns="http://www.w3.org/2000/svg"><g clip-rule="evenodd" fill="#28b0e6" fill-rule="evenodd"><g fill-opacity=".6"><path d="m20 0h-1.8182v18.1678l1.8182 1.8321z"/><path d="m16.3636 0h-1.8182v14.5038l1.8182 1.8319z"/><path d="m12.7274 0h-1.8182v10.8396l1.8182 1.8321z"/></g><path d="m7.27228 7.25171v12.74789h1.81817v-10.91586z"/><path d="m3.63727 3.58765v16.41245h1.81816v-14.58042z"/><path d="m.0763254 0h-.0763254v19.9997h1.81817v-18.24457z"/></g></svg>

<svg width="20" height="20" viewBox="0 0 20 20" fill="none" xmlns="http://www.w3.org/2000/svg">
<path fill-rule="evenodd" clip-rule="evenodd" d="M20 0H18.1818V18.1678L20 19.9999V0Z" fill="#28B0E6" fill-opacity="0.6"/>
<path fill-rule="evenodd" clip-rule="evenodd" d="M16.3636 0H14.5454V14.5038L16.3636 16.3357V0Z" fill="#28B0E6" fill-opacity="0.6"/>
<path fill-rule="evenodd" clip-rule="evenodd" d="M12.7274 0H10.9092V10.8396L12.7274 12.6717V0Z" fill="#28B0E6" fill-opacity="0.6"/>
<path fill-rule="evenodd" clip-rule="evenodd" d="M7.27228 7.25171V19.9996H9.09045V9.08374L7.27228 7.25171Z" fill="#28B0E6"/>
<path fill-rule="evenodd" clip-rule="evenodd" d="M3.63727 3.58765V20.0001H5.45543V5.41968L3.63727 3.58765Z" fill="#28B0E6"/>
<path fill-rule="evenodd" clip-rule="evenodd" d="M0.0763254 0H0V19.9997H1.81817V1.75513L0.0763254 0Z" fill="#28B0E6"/>
</svg>
